X:1
T:Title
%%score { ( 1 4 ) | ( 2 3 ) }
L:1/8
Q:1/4=80
M:2/4
K:C
V:1 treble nm="Grand Piano"
V:4 treble 
V:2 bass 
V:3 bass 
V:1
 AA GG | FF C2 | DF CA | DA [EG]2 | .[DG_B]2 .[A,CFA]2 | GG D2 | CF EF | AG [A,F]2 | z2 [Gc]2 | %9
w: Dr.~S.~B.~Jackson * * *|||||||||
 z2 [ac']2 | [FA]c dc | z2 [G_B]2 | z2 [G_B]2 | z2 [g_b]2 | [EG]_B cB | [G_B]A AF | cA GF | %17
w: ||||||||
 [DG_B][_B,DG] D2 | CF EF | AG [F,A,F]2 |] %20
w: |||
V:2
 C2 _B,2 | [F,A,]4 | [^G,B,]2 A,C | [G,C]2 [C,_B,]2 | z[K:treble] _B[K:bass] z A | %5
 _B,,2 [=B,,^G,]2 | [C,A,]2 [D,C]2 | C_B, [F,,F,]2 | [F,,F,]2[K:treble] [A,CF][A,C] | %9
 [F,,F,]2 [A,CF][A,C] | z[K:treble] A AA | z ^G _B,B, | z[K:treble] G _B,[K:bass]B, | %13
 z[K:treble] g [_B,CE][K:bass]B, | z[K:treble] G AG | z[K:treble] F [A,CF][K:bass][A,C] | %16
 A,C _B,A, | G,,_B,, [=B,,^G,]2 | [C,A,]2 [D,B,]2 | C_B, F,,2 |] %20
V:3
 F,4 | x4 | F,4 | x4 | [G,,G,]2[K:treble][K:bass] A,,2 | x4 | x4 | C,2 z2 | x2[K:treble] x2 | x4 | %10
 [F,,F,]2[K:treble] [A,CF]2 | C,2 z2 | C,2[K:treble] z2[K:bass] | C,2[K:treble] z2[K:bass] | %14
 C,2[K:treble] [_B,CE]2 | [F,,F,]2[K:treble] z2[K:bass] | F,4 | x4 | x4 | C,2 z2 |] %20
V:4
 x4 | x4 | x4 | x4 | x4 | [_B,D]2 z2 | x4 | x4 | [FA][Ac] z F | [fa][ac'] z F | x4 | %11
 [Ac]B [CE][CE] | [EG]_B [CE][CE] | [eg]_b z [CE] | x4 | x4 | x4 | x4 | x4 | x4 |] %20

